assets/2023/icons/http.svg

<svg width="16" height="16" viewBox="0 0 16 16" fill="none" xmlns="http://www.w3.org/2000/svg">
<path d="M2.25 13L3.81128 4.005H5.34043L6.93383 13H5.7452L4.65938 5.9325L4.57585 5.33497L4.49233 5.9325L3.47075 13H2.25ZM3.1495 10.6549V9.66542H5.93153V10.6549H3.1495Z" fill="#3574F0"/>
<path d="M8 12.995V4H9.77419C10.2817 4 10.6989 4.09638 11.0258 4.28913C11.357 4.48188 11.6022 4.77314 11.7613 5.16292C11.9204 5.55271 12 6.04315 12 6.63425C12 7.22963 11.9183 7.72222 11.7548 8.112C11.5957 8.50178 11.3462 8.79519 11.0065 8.99223C10.671 9.18498 10.243 9.28135 9.72258 9.28135H9.16774V12.995H8ZM9.76129 8.22123C10.1183 8.22123 10.3742 8.09487 10.529 7.84215C10.6882 7.58515 10.7677 7.18252 10.7677 6.63425C10.7677 6.09455 10.6882 5.69834 10.529 5.44563C10.3742 5.18863 10.1183 5.06013 9.76129 5.06013H9.16774V8.22123H9.76129Z" fill="#3574F0"/>
<path d="M13 13V4.005H14V13H13Z" fill="#3574F0"/>
</svg>

<svg xmlns="http://www.w3.org/2000/svg" width="16" height="16" fill="none" viewBox="0 0 16 16"><path fill="#3574F0" d="m2.25 13 1.561-8.995h1.53L6.933 13H5.745L4.66 5.933l-.083-.598-.084.598L3.471 13zm.9-2.345v-.99h2.782v.99zM8 12.995V4h1.774q.762 0 1.252.29.497.288.735.873.24.585.239 1.471 0 .894-.245 1.478-.24.585-.748.88-.504.29-1.284.29h-.555v3.713zm1.761-4.774q.535 0 .768-.379.24-.386.239-1.208 0-.81-.239-1.188-.232-.386-.768-.386h-.593v3.161zM13 13V4.005h1V13z"/></svg>
